app/dist/common/images/builders-firstsource.svg

<svg height="18" width="18" xmlns="http://www.w3.org/2000/svg"><path d="m0 0h18v18h-18z" fill="#f0f3fa"/><path d="m5.77 4h-1.77l.007 10h6.816c.495-.448.307-.888.151-1.052-1.444-1.64-4.42-5.043-4.773-5.52-.352-.477-.52-.546-.561-.522-.311.126-.655.696-.787.965l-.515-.216 1.431-3.655zm8.23.003h-7.143c1.868 2.142 5.71 6.517 6.13 6.883.421.366.85.266 1.013.17v-7.052zm0 7.854-2.143 2.143h2.143z" fill="#ed174b"/></svg>

<!-- by TradingView --><svg width="18" height="18" xmlns="http://www.w3.org/2000/svg"><path fill="#F0F3FA" d="M0 0h18v18H0z"/><path d="M5.77 4H4l.007 10h6.816c.495-.448.307-.888.151-1.052-1.444-1.64-4.42-5.043-4.773-5.52-.352-.477-.52-.546-.561-.522-.311.126-.655.696-.787.965l-.515-.216L5.769 4zM14 4.003H6.857c1.868 2.142 5.71 6.517 6.13 6.883.421.366.85.266 1.013.17V4.004zM14 11.857L11.857 14H14v-2.143z" fill="#ED174B"/></svg>
